X:9966
T:Bourr\'ee de Ch\^ateau
C:trad.
B:80 AIRS A DANSER DU CENTRE FRANCE
O:France
Z:European Library of Traditional Music Resources
R:Bourr\'ee
M:2/4
L:1/8
A:Auvergne, CHATEAU SUR ALLIER
K:G
D2 G2 | B3 A | G2 E2 | D4 | B3/A/ Bc | B2 A2 | A3/G/ AB | A2 G2 ||
D2 G2 | B3 A | G2 E2 | D4 | B3/A/ Bc | B3/B/ BB | A2 d2 | G4 |]

